X:3
T: Nos Galan
T: New Year's Eve
T: Dawns Flodau Nantgarw
|: The Nantgarw Flower Dance
T: Deck the Halls
M: 2/4
L: 1/8
R: polka
K: G Major
d>c BA | GG/A/ BG | A/B/c/A/ B>A | GF G2 |
dd/c/ BA | G>A BG | A/B/c/A/ B>A | GF G2 ||
AA/B/ cA | BB/c/ dA | B/^A/B/c/ dg | fe d/A/B/c/ |
d>c B>A | G/F/G/A/ BG | A/e/c/A/ d>G | GF G2 |]
